!! 00000] TT[WS
!!!OTL: Gu Changgong
!!!ARE: Asia, China,ÿShanxi Wutai
!! Ethnic Group: Han
!! WI, 159 (2)
!!!SCT: J0195
!!!YEM: Copyright 1995, estate of Helmut Schaffrath.
**kern
*ICvox
*Ivox
*M2/4
*k[f#]
*G:
{8a
8a
8a
8b
=1
2dd
=2
8ee
8gg
8ee
8ee
=3
4dd
8b
8ee
=4
8dd
8b
8a
8b}
=5
{8g
8g
8e
8g
=6
4.a
8r
=7
8dd
8ee
4dd
=8
8b
8a
8dd
8g
=9
4.a
8r}
=10
{8a
8b
4dd
=11
8b
4dd
8a
=12
4e
4g
=13
8a
8b
8a
8a
=14
4.f#
8e
=15
2d}
=16
{8e
8g
8e
8g
=17
2a
=18
8b
8dd
8a
8g
=19
8e
8e
8g
8a
=20
4.d
8g
=21
8e
8d
8A
8B
=22
2d}
==
!!!AGN: Xiaodiao. Qingge
!!!ONB: ESAC (Essen Associative Code) Database: CHINA
!!!AMT: simple duple
!!!AIN: vox
!!!EED: Helmut Schaffrath
!!!EEV: 1.0
*-
